Gurmukhi/0A13.svg

<svg enable-background="new 0 0 336 592" viewBox="0 0 336 592" xmlns="http://www.w3.org/2000/svg"><path d="m153.627869 381.447205c-19.418259-13.070771-31.40194-31.448334-39.637024-52.40741-12.683243-32.28009-17.074692-65.854675-14.430336-100.401108.264938-3.461227.035492-6.960296.035492-11.452072-5.16668 0-10.581154-.236893-15.963707.075775-4.223824.245346-6.546112-1.387543-7.709816-5.353714-.793824-2.705566-1.998696-5.289291-2.993859-7.937225-2.45108-6.521836-1.372505-8.156418 5.462593-8.190598 6.666031-.03334 13.343094-.24266 19.994629.0681 4.22757.197525 6.106972-1.235916 7.299004-5.410522 5.034126-17.630036 13.881599-33.031738 27.550049-45.538925 15.151245-13.864014 33.187118-21.344788 53.254471-24.087464 18.561111-2.536819 37.269058-.673805 55.904892-1.136955.498108-.012383 1.014602-.022682 1.494461.087814 3.134735.721787 10.624557 17.104988 9.140457 19.95385-1.100128 2.111786-3.119629 1.605377-4.872208 1.60994-14.832168.038543-29.675949-.341248-44.493683.123687-16.172882.507447-31.663467 3.889328-45.195999 13.580948-13.941986 9.984818-22.634125 23.489441-27.563217 39.702301 2.322556 1.677796 4.551712 1.004578 6.613022 1.007065 43.663467.052643 87.327301.120346 130.990143-.050094 4.92984-.019227 7.855682 1.190231 8.957824 6.255157.629578 2.893204 2.135132 5.584229 3.050019 8.429398 1.74826 5.436966.868042 6.693237-4.676941 6.771637-5.165344.073043-10.341828.223419-15.495697-.026291-4.322144-.209442-5.956436.980667-6.192704 5.788803-.777282 15.818146-4.412109 30.875351-13.631073 44.227264-5.739974 8.313233-13.622146 13.950257-22.179306 18.866272.502152 2.386414 2.546006 2.674408 4.017884 3.553009 15.101333 9.014374 25.946487 21.265564 29.217972 39.051758 5.607284 30.485352-9.939515 57.580872-43.043595 63.535156-19.428467 3.494477-37.745712.025208-54.903747-10.695556m61.315979-76.921967c-7.49025-5.03833-15.816941-7.551453-24.754563-8.315308-19.432617-1.660827-38.905884-.408783-58.352035-.91568-4.510445-.117584-5.008904 2.065156-4.243157 5.598481 2.968468 13.697174 6.893425 27.032501 14.661965 38.920349 13.12236 20.080566 29.891998 33.427765 55.663177 29.90094 9.116822-1.24765 17.301575-4.582794 23.683502-11.532837 13.400544-14.593384 11.624176-41.007324-6.658889-53.655945m2.369934-44.690063c11.496155-10.12822 17.923431-22.873505 19.986847-38.008667.444946-3.263733-.146057-4.667633-3.623474-4.66214-34.475998.054428-68.952118.063308-103.428116.0168-3.31472-.004471-4.608719 1.263351-5.005616 4.632568-1.737045 14.745514-2.158119 29.479874-.963119 44.292404.340736 4.223602 1.903419 5.706513 6.17662 5.65918 16.986115-.188263 33.976929-.198822 50.96344-.024567 13.122178.134583 24.927964-3.419952 35.893418-11.905578z"/></svg>

<svg version="1.1" id="Layer_1" xmlns="http://www.w3.org/2000/svg" xmlns:xlink="http://www.w3.org/1999/xlink" x="0px" y="0px"
	 width="100%" viewBox="0 0 336 592" enable-background="new 0 0 336 592" xml:space="preserve">
<path fill="#000000" opacity="1.000000" stroke="none" 
	d="
M153.627869,381.447205 
	C134.209610,368.376434 122.225929,349.998871 113.990845,329.039795 
	C101.307602,296.759705 96.916153,263.185120 99.560509,228.638687 
	C99.825447,225.177460 99.596001,221.678391 99.596001,217.186615 
	C94.429321,217.186615 89.014847,216.949722 83.632294,217.262390 
	C79.408470,217.507736 77.086182,215.874847 75.922478,211.908676 
	C75.128654,209.203110 73.923782,206.619385 72.928619,203.971451 
	C70.477539,197.449615 71.556114,195.815033 78.391212,195.780853 
	C85.057243,195.747513 91.734306,195.538193 98.385841,195.848953 
	C102.613411,196.046478 104.492813,194.613037 105.684845,190.438431 
	C110.718971,172.808395 119.566444,157.406693 133.234894,144.899506 
	C148.386139,131.035492 166.422012,123.554718 186.489365,120.812042 
	C205.050476,118.275223 223.758423,120.138237 242.394257,119.675087 
	C242.892365,119.662704 243.408859,119.652405 243.888718,119.762901 
	C247.023453,120.484688 254.513275,136.867889 253.029175,139.716751 
	C251.929047,141.828537 249.909546,141.322128 248.156967,141.326691 
	C233.324799,141.365234 218.481018,140.985443 203.663284,141.450378 
	C187.490402,141.957825 171.999817,145.339706 158.467285,155.031326 
	C144.525299,165.016144 135.833160,178.520767 130.904068,194.733627 
	C133.226624,196.411423 135.455780,195.738205 137.517090,195.740692 
	C181.180557,195.793335 224.844391,195.861038 268.507233,195.690598 
	C273.437073,195.671371 276.362915,196.880829 277.465057,201.945755 
	C278.094635,204.838959 279.600189,207.529984 280.515076,210.375153 
	C282.263336,215.812119 281.383118,217.068390 275.838135,217.146790 
	C270.672791,217.219833 265.496307,217.370209 260.342438,217.120499 
	C256.020294,216.911057 254.386002,218.101166 254.149734,222.909302 
	C253.372452,238.727448 249.737625,253.784653 240.518661,267.136566 
	C234.778687,275.449799 226.896515,281.086823 218.339355,286.002838 
	C218.841507,288.389252 220.885361,288.677246 222.357239,289.555847 
	C237.458572,298.570221 248.303726,310.821411 251.575211,328.607605 
	C257.182495,359.092957 241.635696,386.188477 208.531616,392.142761 
	C189.103149,395.637238 170.785904,392.167969 153.627869,381.447205 
M214.943848,304.525238 
	C207.453598,299.486908 199.126907,296.973785 190.189285,296.209930 
	C170.756668,294.549103 151.283401,295.801147 131.837250,295.294250 
	C127.326805,295.176666 126.828346,297.359406 127.594093,300.892731 
	C130.562561,314.589905 134.487518,327.925232 142.256058,339.813080 
	C155.378418,359.893646 172.148056,373.240845 197.919235,369.714020 
	C207.036057,368.466370 215.220810,365.131226 221.602737,358.181183 
	C235.003281,343.587799 233.226913,317.173859 214.943848,304.525238 
M217.313782,259.835175 
	C228.809937,249.706955 235.237213,236.961670 237.300629,221.826508 
	C237.745575,218.562775 237.154572,217.158875 233.677155,217.164368 
	C199.201157,217.218796 164.725037,217.227676 130.249039,217.181168 
	C126.934319,217.176697 125.640320,218.444519 125.243423,221.813736 
	C123.506378,236.559250 123.085304,251.293610 124.280304,266.106140 
	C124.621040,270.329742 126.183723,271.812653 130.456924,271.765320 
	C147.443039,271.577057 164.433853,271.566498 181.420364,271.740753 
	C194.542542,271.875336 206.348328,268.320801 217.313782,259.835175 
z"/>
</svg>
